src/app/assets/logo/icon_header.svg

<svg width="40" height="59" viewBox="0 0 40 59" fill="none" xmlns="http://www.w3.org/2000/svg">
<g clip-path="url(#clip0_2044_55)">
<path d="M16.9949 20.4665C16.9949 22.2729 18.4463 23.7376 20.2363 23.7376C22.0263 23.7376 23.4778 22.2729 23.4778 20.4665C23.4778 18.6601 22.0263 17.1954 20.2363 17.1954C18.4463 17.1954 16.9949 18.6601 16.9949 20.4665ZM37.924 21.0055H35.3954V25.6623H30.0902V21.0055H27.403C27.1293 24.7603 24.0264 27.7213 20.2352 27.7213C16.444 27.7213 13.0462 24.4727 13.0462 20.4665C13.0462 16.4602 16.2653 13.2117 20.2352 13.2117C22.3749 13.2117 24.2945 14.1555 25.6119 15.6518H40C37.8525 6.67182 29.8411 0 20.2832 0C9.0807 0 0 9.16375 0 20.4687C0 20.6266 0.0022347 20.7856 0.00558675 20.9446C0.00558675 20.9897 0.00782145 21.0337 0.0089388 21.0776C0.0122908 21.2107 0.0178776 21.3437 0.0245817 21.4779C0.0245817 21.4993 0.0268164 21.5208 0.0279337 21.5422C0.85142 38.1524 20.2609 59 20.2609 59C34.078 43.2659 38.5206 31.82 39.9318 25.6623H37.924V21.0055Z" fill="#FFD95D"/>
</g>
<defs>
<clipPath id="clip0_2044_55">
<rect width="40" height="59" fill="white"/>
</clipPath>
</defs>
</svg>

<?xml version="1.0" encoding="utf-8"?>
<!-- Generator: Adobe Illustrator 28.2.0, SVG Export Plug-In . SVG Version: 6.00 Build 0)  -->
<svg version="1.1" id="Capa_1" xmlns="http://www.w3.org/2000/svg" xmlns:xlink="http://www.w3.org/1999/xlink" x="0px" y="0px"
	 viewBox="0 0 40 59" style="enable-background:new 0 0 40 59;" xml:space="preserve">
<style type="text/css">
	.st0{clip-path:url(#SVGID_00000038412741530353942420000002458426132063804326_);}
	.st1{fill:#FFCA22;}
</style>
<g>
	<defs>
		<rect id="SVGID_1_" width="40" height="59"/>
	</defs>
	<clipPath id="SVGID_00000096751418553586335700000018213942303411908012_">
		<use xlink:href="#SVGID_1_"  style="overflow:visible;"/>
	</clipPath>
	<g style="clip-path:url(#SVGID_00000096751418553586335700000018213942303411908012_);">
		<path class="st1" d="M17,20.5c0,1.8,1.5,3.3,3.2,3.3c1.8,0,3.2-1.5,3.2-3.3c0-1.8-1.5-3.3-3.2-3.3C18.4,17.2,17,18.7,17,20.5z
			 M37.9,21h-2.5v4.7h-5.3V21h-2.7c-0.3,3.8-3.4,6.7-7.2,6.7S13,24.5,13,20.5c0-4,3.2-7.3,7.2-7.3c2.1,0,4.1,0.9,5.4,2.4H40
			C37.9,6.7,29.8,0,20.3,0C9.1,0,0,9.2,0,20.5c0,0.2,0,0.3,0,0.5c0,0,0,0.1,0,0.1c0,0.1,0,0.3,0,0.4c0,0,0,0,0,0.1
			C0.9,38.2,20.3,59,20.3,59c13.8-15.7,18.3-27.2,19.7-33.3h-2V21z"/>
	</g>
</g>
</svg>
